X:1
T:Title
%%score { ( 1 3 ) | ( 2 4 5 ) }
L:1/8
M:4/4
K:F
V:1 treble nm="Grand Piano"
V:3 treble 
V:2 bass 
V:4 bass 
V:5 bass 
V:1
 z4 z2[Q:1/4=110] C2 | [CFA]2 [CFA]2 [CFA]2 [CFA]2 | [C^FB]4 z4 | [FGd]2 [=B,FG]2 [B,FG]2 A2 | %4
 [FG]6 z2 | [EGB]2 [_EGB]2 [DGB]2 [^CGB]2 | [GB]4 z4 | [CFA]2 [CF]2 [B,D]2 [DB]2 | [CA]6 z2 | %9
 [DE=B]2 [DE]2 [DEc]2 [EB]2 | [CE=B]4 [CEA]2 [CEA]2 | [FA]2 [FG]2 [FA]2 [FG]2 | %12
 [EGce]6[K:bass][K:treble] z2 | [GAe]2 [^CGA]2 [GB]2 [CGA]2 | d2 c2 =B2 A2 | G2 c2 c2 =B2 | %16
[M:3/4] [Cc]2 (3ccc c2 |[M:1/4] [CEB]2 |[M:4/4] z2 A2 z4 | [DFB]2 [DFB]2 [DFB]2 [DFB]2 | %20
 [CFA]2 [CFA]2 [DF=B]2 [DFB]2 |[M:3/4] [CEB]2 B>B B2 |[M:1/4] C2 | %23
[M:4/4] [CFAc]2 [CFAc]2 [^CGA^c]2 [CGAc]2 | %24
[M:17/16] d/-d/-d/-d/-d-<d z/ z/ z/ z/[Q:1/4=96] z/ z/ z/ z[Q:1/4=107][Q:1/4=103][Q:1/4=100][Q:1/4=93][Q:1/4=89][Q:1/4=86] | %25
[M:4/4] [CFA]4 [EG]3 [CF] |[M:3/4] [CF]4 [FAcf]2 |] %27
V:2
 z4 z2 [C,,C,]2 | [F,,F,]2 [G,,G,]2 [F,,F,]2 [E,,E,]2 | [D,,D,]2 z2 [D,^F,C]2 [D,F,C]2 | %3
 G,,2 G,2 G,2 F2 | G,,2 G,2 G,2 F2 | [C,,C,]2 [^C,,^C,]2 [D,,D,]2 [_E,,_E,]2 | %6
 [E,,E,]2 [G,,G,]2 [F,,F,]2 [E,,E,]2 | [F,,F,]2 [A,,F,]2 [D,F,]2 [B,,F,]2 | %8
 [F,,F,]2 [C,F,]2 [C,F,]2 z2 | [E,,E,]2 [E,_A,]2 [E,,E,]2 [E,A,D]2 | %10
 [A,,,A,,]2 [C,,C,]2 [E,,E,]2 [A,,A,]2 | [=B,,=B,]2 [G,B,]2 [G,,G,]2 [G,B,]2 | %12
 [C,,C,]2 E,,2 G,,2 [C,C]2 | [A,,A,]2 A,2 ^C,2 A,2 | [D,,D,]2 A,2 [^F,=B,_E]2 [F,CE]2 | %15
 [G,CE]2 [A,CE]2 [_A,DF]2 [G,DF]2 |[M:3/4][K:bass] z2 (3CCC C2 |[M:1/4] [C,,C,]2 | %18
[M:4/4] z2 [CF]2 z4 | [F,,F,]4 [D,,D,]2 [F,,F,]2 | [C,,C,]2 [F,,F,]2 [G,,G,]2 [A,,A,]2 | %21
[M:3/4] z2 [CE]>[CE] [CE]2 |[M:1/4] [C,,C,]2 |[M:4/4] [F,,F,]2 [F,,F,]2 [E,,E,]2 [E,,E,]2 | %24
[M:17/16] [D,,D,]-<[D,,D,][C,,C,]-<[C,,C,][B,,,B,,]3/2[G,,,G,,][A,,,A,,][B,,,B,,] | %25
[M:4/4] [C,,C,]4 [C,B,C]3 [F,A,] |[M:3/4] [F,A,]4 [F,,F,]2 |] %27
V:3
 x8 | x8 | z2 [D,^F,]2 [^FA]2 [FA]2 | x8 | z2 =B,2 B,2 A2 | x8 | C2 E2 [DGB]2 [CGB]2 | x8 | %8
 z2 A,2 A,2 A2 | x8 | x8 | x8 | z2[K:bass] E,2 G,2[K:treble] [Gce]2 | x8 | [FA]4 z4 | x8 | %16
[M:3/4] E6 |[M:1/4] x2 |[M:4/4] [CFA]2 z F, [A,CFA]2 [CFA]2 | x8 | x8 |[M:3/4] x6 |[M:1/4] x2 | %23
[M:4/4] x8 |[M:17/16] [CFA]-<[CFA][C^FA]-<[CFA][DGBd]3/2D[DAc][DGB] |[M:4/4] x8 |[M:3/4] x6 |] %27
V:4
 x8 | x8 | x8 | x8 | x8 | x8 | x8 | x8 | x8 | x8 | x8 | x8 | x8 | x8 | x8 | x8 | %16
[M:3/4][K:bass] [C,G,]6 |[M:1/4] x2 |[M:4/4] [F,,F,]4 z4 | x8 | x8 |[M:3/4] [G,,G,]6 |[M:1/4] x2 | %23
[M:4/4] x8 |[M:17/16] x17/2 |[M:4/4] x8 |[M:3/4] x6 |] %27
V:5
 x8 | x8 | x8 | x8 | x8 | x8 | x8 | x8 | x8 | x8 | x8 | x8 | x8 | x8 | x8 | x8 | %16
[M:3/4][K:bass] x6 |[M:1/4] x2 |[M:4/4] z2 z F,, A,,2 [F,,F,]2 | x8 | x8 |[M:3/4] x6 |[M:1/4] x2 | %23
[M:4/4] x8 |[M:17/16] x17/2 |[M:4/4] x8 |[M:3/4] x6 |] %27

